X: 171
T: Gege song mezi
%%abc-version 2.0
%%abcx-abcm2ps-target-version 5.9.1 (29 Sep 2008)
%%abc-creator hum2abc beta
%%abcx-conversion-date 2013/10/02 07:52:29
%%abc-edited-by Helmut Schaffrath
%%humdrum-veritas 1125085238
%%humdrum-veritas-data 312269653
%%continueall 1
%%barnumbers 0
L: 1/8
M: 2/4
K: F
F2F D [I:setbarnb 1]| 
C2C2 | 
c2f d | 
c2c A | 
f A A G | 
A GF2 | 
G A D F | 
G4 | 
G AC2 | 
c d c A | 
c2D F | 
G A G F | 
c2D F | 
G A G F | 
D C F D | 
C4 |]  



